X: 421
M: C
L: 1/8
K: C
V: 1
(TE>DE)C E<GG2 | c>GA>G c>GA<c |\
(TE>DE)C E<GG2 | A>cG>c E<DD :|
|: f|\
|: g |\
e>gg>a g>aTg>e | e>a-a>b a>ba>g |\
e>gd>e c>de>c | e>a(Tg>e) d/d/d d :|
|: g |\
V: 2 clef=bass middle=d
z |\
c2c2 c2c2 | c2c2 c2c2 |\
c2c2 c2c2 | f2e2 d2d :|\
|: z |\
c2d2 d2d2 |
c2c2 c2c2 |\
|: z |\
c2c2 c2c2 | c2c2 c2c2 |\
c2c2 c2c2 |
|: z |\
c2c2 c2c2 | c2c2 c2c2 |\
c2c2 c2c2 | f2e2 d2d |]

